packages/tokens/icons/thumbsUpFilled/size32Px.svg

<svg viewBox="0 0 32 32" fill="none" xmlns="http://www.w3.org/2000/svg" width="1em" height="1em"><path fill-rule="evenodd" clip-rule="evenodd" d="M15.0752 23.8946L10.8952 22.6406C10.6281 23.431 9.88052 24 9 24H5C4.44772 24 4 23.5523 4 23L4 11C4 10.4477 4.44772 10 5 10H9C10.095 10 10.9844 10.88 10.9998 11.9713C12.2451 11.8302 13.6577 11.1888 14.8179 10.286C16.155 9.24541 16.9999 7.9845 16.9999 6.94052V5.99715C16.9999 4.89112 17.8968 4.0005 18.9999 4.00049C20.1045 4.00048 21 4.89593 21 6.00052V7.42767C21 8.65626 20.7561 9.87046 20.2847 11.0005H26C27.1046 11.0005 28 11.8959 28 13.0005C28 13.7277 27.6119 14.3642 27.0316 14.7143C27.3239 15.062 27.5 15.5107 27.5 16.0005C27.5 16.7277 27.1119 17.3642 26.5316 17.7143C26.8239 18.062 27 18.5107 27 19.0005C27 20.029 26.2237 20.8761 25.2251 20.988C25.3998 21.285 25.5 21.631 25.5 22.0005C25.5 23.1051 24.6046 24.0005 23.5 24.0005H19.5C19.4925 24.0005 19.4851 24.0003 19.4777 24H15.7935C15.5502 24 15.3082 23.9645 15.0752 23.8946Z" fill="currentColor"/></svg>

<svg xmlns="http://www.w3.org/2000/svg" fill="none" viewBox="0 0 32 32" width="1em" height="1em"><path fill="currentColor" fill-rule="evenodd" d="m15.075 23.895-4.18-1.254A2 2 0 0 1 9 24H5a1 1 0 0 1-1-1V11a1 1 0 0 1 1-1h4a2 2 0 0 1 2 1.971c1.245-.14 2.658-.782 3.818-1.685C16.155 9.246 17 7.985 17 6.941v-.944A2 2 0 0 1 21 6v1.428A9.28 9.28 0 0 1 20.285 11H26a2 2 0 0 1 1.032 3.713 1.999 1.999 0 0 1-.5 3 2 2 0 0 1-1.306 3.274A2 2 0 0 1 23.5 24h-7.708a2.5 2.5 0 0 1-.718-.105Z" clip-rule="evenodd"/></svg>
